incomeartour/img/icons/arrow-red.svg

<svg width="22" height="13" viewBox="0 0 22 13" fill="none" xmlns="http://www.w3.org/2000/svg">
<path d="M1 5.5C0.447715 5.5 4.82823e-08 5.94772 0 6.5C-4.82823e-08 7.05228 0.447715 7.5 1 7.5L1 5.5ZM21 7.5C21.5523 7.5 22 7.05229 22 6.5C22 5.94772 21.5523 5.5 21 5.5L21 7.5ZM1 7.5L21 7.5L21 5.5L1 5.5L1 7.5Z" fill="#900000"/>
<path d="M21 6.50007L21.7071 7.20718C21.8946 7.01964 22 6.76529 22 6.50007C22 6.23486 21.8946 5.9805 21.7071 5.79297L21 6.50007ZM16.7071 0.792898C16.3166 0.402371 15.6834 0.402367 15.2929 0.792888C14.9024 1.18341 14.9024 1.81658 15.2929 2.2071L16.7071 0.792898ZM15.2929 10.7929C14.9024 11.1834 14.9024 11.8166 15.2929 12.2071C15.6834 12.5976 16.3166 12.5976 16.7071 12.2071L15.2929 10.7929ZM15.2929 2.2071L20.2929 7.20717L21.7071 5.79297L16.7071 0.792898L15.2929 2.2071ZM20.2929 5.79296L15.2929 10.7929L16.7071 12.2071L21.7071 7.20718L20.2929 5.79296Z" fill="#900000"/>
</svg>

<svg width="22" height="13" fill="none" xmlns="http://www.w3.org/2000/svg"><path d="M1 5.5a1 1 0 000 2v-2zm20 2a1 1 0 100-2v2zm-20 0h20v-2H1v2z" fill="#900000"/><path d="M21 6.5l.707.707a1 1 0 000-1.414L21 6.5zM16.707.793a1 1 0 10-1.414 1.414L16.707.793zm-1.414 10a1 1 0 001.414 1.414l-1.414-1.414zm0-8.586l5 5 1.414-1.414-5-5-1.414 1.414zm5 3.586l-5 5 1.414 1.414 5-5-1.414-1.414z" fill="#900000"/></svg>
